Sweet-Rainbow/icons/wps-office-etmain.svg

<?xml version="1.0" encoding="UTF-8" standalone="no"?>
<!-- Generator: Gravit.io -->

<svg
   xmlns:dc="http://purl.org/dc/elements/1.1/"
   xmlns:cc="http://creativecommons.org/ns#"
   xmlns:rdf="http://www.w3.org/1999/02/22-rdf-syntax-ns#"
   xmlns:svg="http://www.w3.org/2000/svg"
   xmlns="http://www.w3.org/2000/svg"
   xmlns:sodipodi="http://sodipodi.sourceforge.net/DTD/sodipodi-0.dtd"
   xmlns:inkscape="http://www.inkscape.org/namespaces/inkscape"
   style="isolation:isolate"
   viewBox="0 0 36 36"
   width="48"
   height="48"
   version="1.1"
   id="svg9"
   sodipodi:docname="wps-office-etmain.svg"
   inkscape:version="0.92.4 (5da689c313, 2019-01-14)">
  <metadata
     id="metadata15">
    <rdf:RDF>
      <cc:Work
         rdf:about="">
        <dc:format>image/svg+xml</dc:format>
        <dc:type
           rdf:resource="http://purl.org/dc/dcmitype/StillImage" />
        <dc:title></dc:title>
      </cc:Work>
    </rdf:RDF>
  </metadata>
  <defs
     id="defs13" />
  <sodipodi:namedview
     pagecolor="#ffffff"
     bordercolor="#666666"
     borderopacity="1"
     objecttolerance="10"
     gridtolerance="10"
     guidetolerance="10"
     inkscape:pageopacity="0"
     inkscape:pageshadow="2"
     inkscape:window-width="640"
     inkscape:window-height="480"
     id="namedview11"
     showgrid="false"
     inkscape:zoom="29.365243"
     inkscape:cx="25.325443"
     inkscape:cy="32"
     inkscape:current-layer="svg9"
     units="px" />
  <linearGradient
     id="_lgradient_32"
     x1="0"
     y1="0.5"
     x2="1"
     y2="0.5"
     gradientTransform="matrix(42,0,0,42,3,3)"
     gradientUnits="userSpaceOnUse">
    <stop
       offset="0%"
       stop-opacity="1"
       style="stop-color:rgb(67,233,123)"
       id="stop2" />
    <stop
       offset="97.82608695652173%"
       stop-opacity="1"
       style="stop-color:rgb(56,249,215)"
       id="stop4" />
  </linearGradient>
  <g
     id="g826"
     transform="matrix(0.85714286,0,0,0.85714286,-2.5714286,-2.5714286)">
    <path
       id="path7"
       d="M 34.5,3.067 C 34.342,3.022 34.174,3 34,3 V 3 H 8 C 5.24,3 3,5.24 3,8 v 19 0 c 0,1.104 0.896,2 2,2 v 0 c 1.104,0 2,-0.896 2,-2 v 0 0 0 -17 C 7,8.344 8.344,7 10,7 H 34 V 7 C 34.174,7 34.342,6.978 34.5,6.933 34.658,6.978 34.826,7 35,7 v 0 h 3 c 1.656,0 3,1.344 3,3 v 3 0 c 0,1.104 0.896,2 2,2 v 0 c 1.104,0 2,-0.896 2,-2 V 13 8 C 45,5.24 42.76,3 40,3 H 35 V 3 C 34.826,3 34.658,3.022 34.5,3.067 Z M 27.98,26 v 0 0 c 0.22,0 0.44,0.02 0.66,0.06 0.54,0.08 1.07,0.23 1.56,0.46 0.5,0.21 0.94,0.55 1.27,0.99 0.16,0.23 0.29,0.49 0.37,0.76 0.12,0.4 0.18,0.81 0.17,1.23 0.01,0.42 -0.05,0.83 -0.17,1.23 -0.08,0.27 -0.21,0.53 -0.37,0.76 -0.33,0.44 -0.77,0.78 -1.27,0.99 -0.49,0.23 -1.02,0.38 -1.56,0.46 C 28.43,32.98 28.21,33 28,33 H 14.01 c -0.53,0 -1.04,0.21 -1.41,0.59 -0.37,0.37 -0.59,0.88 -0.59,1.41 0,0.53 0.22,1.04 0.59,1.41 0.37,0.38 0.88,0.59 1.41,0.59 h 14 c 0.01,0 0.03,0 0.04,0 0.4,-0.01 0.81,-0.04 1.21,-0.11 0.89,-0.13 1.75,-0.38 2.57,-0.75 1.13,-0.5 2.11,-1.28 2.86,-2.27 0.43,-0.6 0.76,-1.27 0.98,-1.97 0.23,-0.78 0.35,-1.59 0.34,-2.4 0.01,-0.81 -0.11,-1.62 -0.34,-2.4 -0.22,-0.7 -0.55,-1.37 -0.98,-1.97 -0.75,-0.99 -1.73,-1.77 -2.86,-2.27 -0.82,-0.37 -1.68,-0.62 -2.57,-0.75 -0.4,-0.07 -0.81,-0.1 -1.21,-0.11 -0.025,0 -0.051,0 -0.076,0 H 20.215 C 20.151,21.993 20.086,21.99 20.02,21.99 v 0 c -0.22,-0.01 -0.44,-0.03 -0.66,-0.07 -0.54,-0.07 -1.07,-0.23 -1.56,-0.45 -0.5,-0.22 -0.94,-0.56 -1.27,-0.99 -0.16,-0.23 -0.29,-0.49 -0.37,-0.76 -0.12,-0.4 -0.18,-0.82 -0.17,-1.23 -0.01,-0.42 0.05,-0.84 0.17,-1.24 0.08,-0.27 0.21,-0.53 0.37,-0.76 0.33,-0.43 0.77,-0.77 1.27,-0.99 0.49,-0.22 1.02,-0.38 1.56,-0.45 0.21,-0.04 0.43,-0.06 0.64,-0.06 h 13.99 c 0.53,0 1.04,-0.21 1.41,-0.59 0.37,-0.37 0.59,-0.88 0.59,-1.41 0,-0.53 -0.22,-1.04 -0.59,-1.42 -0.37,-0.37 -0.88,-0.58 -1.41,-0.58 h -14 c -0.01,0 -0.03,0 -0.04,0 -0.4,0 -0.81,0.04 -1.21,0.11 -0.89,0.13 -1.75,0.38 -2.57,0.75 -1.13,0.49 -2.11,1.28 -2.86,2.27 -0.43,0.6 -0.76,1.26 -0.98,1.97 -0.23,0.78 -0.35,1.58 -0.34,2.4 -0.01,0.81 0.11,1.62 0.34,2.39 0.22,0.71 0.55,1.38 0.98,1.97 0.75,0.99 1.73,1.78 2.86,2.28 0.82,0.36 1.68,0.61 2.57,0.75 0.4,0.06 0.81,0.1 1.21,0.11 0.013,0 0.026,0 0.04,0 L 20,26 Z M 13,41 v 0 c 1.104,0 2,0.896 2,2 v 0 c 0,1.104 -0.896,2 -2,2 v 0 H 8 C 5.24,45 3,42.76 3,40 v -5 0 c 0,-1.104 0.896,-2 2,-2 v 0 c 1.104,0 2,0.896 2,2 v 0 3 c 0,1.656 1.344,3 3,3 z M 41,22 v 0 c 0,-1.104 0.896,-2 2,-2 v 0 c 1.104,0 2,0.896 2,2 v 0 18 c 0,2.76 -2.24,5 -5,5 H 22 v 0 c -1.104,0 -2,-0.896 -2,-2 v 0 c 0,-1.104 0.896,-2 2,-2 v 0 h 16 c 1.656,0 3,-1.344 3,-3 z"
       inkscape:connector-curvature="0"
       style="fill:url(#_lgradient_32);fill-rule:evenodd" />
  </g>
</svg>

<?xml version="1.0" encoding="UTF-8" standalone="no"?><!-- Generator: Gravit.io --><svg xmlns="http://www.w3.org/2000/svg" xmlns:xlink="http://www.w3.org/1999/xlink" style="isolation:isolate" viewBox="0 0 48 48" width="48pt" height="48pt"><linearGradient id="_lgradient_32" x1="0" y1="0.5" x2="1" y2="0.5" gradientTransform="matrix(42,0,0,42,3,3)" gradientUnits="userSpaceOnUse"><stop offset="0%" stop-opacity="1" style="stop-color:rgb(67,233,123)"/><stop offset="97.82608695652173%" stop-opacity="1" style="stop-color:rgb(56,249,215)"/></linearGradient><path d=" M 34.5 3.067 C 34.342 3.022 34.174 3 34 3 L 34 3 L 8 3 C 5.24 3 3 5.24 3 8 L 3 27 L 3 27 C 3 28.104 3.896 29 5 29 L 5 29 C 6.104 29 7 28.104 7 27 L 7 27 L 7 27 L 7 27 L 7 10 C 7 8.344 8.344 7 10 7 L 34 7 L 34 7 C 34.174 7 34.342 6.978 34.5 6.933 C 34.658 6.978 34.826 7 35 7 L 35 7 L 38 7 C 39.656 7 41 8.344 41 10 L 41 13 L 41 13 C 41 14.104 41.896 15 43 15 L 43 15 C 44.104 15 45 14.104 45 13 L 45 13 L 45 8 C 45 5.24 42.76 3 40 3 L 35 3 L 35 3 C 34.826 3 34.658 3.022 34.5 3.067 Z  M 27.98 26 L 27.98 26 L 27.98 26 C 28.2 26 28.42 26.02 28.64 26.06 C 29.18 26.14 29.71 26.29 30.2 26.52 C 30.7 26.73 31.14 27.07 31.47 27.51 C 31.63 27.74 31.76 28 31.84 28.27 C 31.96 28.67 32.02 29.08 32.01 29.5 C 32.02 29.92 31.96 30.33 31.84 30.73 C 31.76 31 31.63 31.26 31.47 31.49 C 31.14 31.93 30.7 32.27 30.2 32.48 C 29.71 32.71 29.18 32.86 28.64 32.94 C 28.43 32.98 28.21 33 28 33 L 14.01 33 C 13.48 33 12.97 33.21 12.6 33.59 C 12.23 33.96 12.01 34.47 12.01 35 C 12.01 35.53 12.23 36.04 12.6 36.41 C 12.97 36.79 13.48 37 14.01 37 L 28.01 37 C 28.02 37 28.04 37 28.05 37 C 28.45 36.99 28.86 36.96 29.26 36.89 C 30.15 36.76 31.01 36.51 31.83 36.14 C 32.96 35.64 33.94 34.86 34.69 33.87 C 35.12 33.27 35.45 32.6 35.67 31.9 C 35.9 31.12 36.02 30.31 36.01 29.5 C 36.02 28.69 35.9 27.88 35.67 27.1 C 35.45 26.4 35.12 25.73 34.69 25.13 C 33.94 24.14 32.96 23.36 31.83 22.86 C 31.01 22.49 30.15 22.24 29.26 22.11 C 28.86 22.04 28.45 22.01 28.05 22 C 28.025 22 27.999 22 27.974 22 L 20.215 22 C 20.151 21.993 20.086 21.99 20.02 21.99 L 20.02 21.99 C 19.8 21.98 19.58 21.96 19.36 21.92 C 18.82 21.85 18.29 21.69 17.8 21.47 C 17.3 21.25 16.86 20.91 16.53 20.48 C 16.37 20.25 16.24 19.99 16.16 19.72 C 16.04 19.32 15.98 18.9 15.99 18.49 C 15.98 18.07 16.04 17.65 16.16 17.25 C 16.24 16.98 16.37 16.72 16.53 16.49 C 16.86 16.06 17.3 15.72 17.8 15.5 C 18.29 15.28 18.82 15.12 19.36 15.05 C 19.57 15.01 19.79 14.99 20 14.99 L 33.99 14.99 C 34.52 14.99 35.03 14.78 35.4 14.4 C 35.77 14.03 35.99 13.52 35.99 12.99 C 35.99 12.46 35.77 11.95 35.4 11.57 C 35.03 11.2 34.52 10.99 33.99 10.99 L 19.99 10.99 C 19.98 10.99 19.96 10.99 19.95 10.99 C 19.55 10.99 19.14 11.03 18.74 11.1 C 17.85 11.23 16.99 11.48 16.17 11.85 C 15.04 12.34 14.06 13.13 13.31 14.12 C 12.88 14.72 12.55 15.38 12.33 16.09 C 12.1 16.87 11.98 17.67 11.99 18.49 C 11.98 19.3 12.1 20.11 12.33 20.88 C 12.55 21.59 12.88 22.26 13.31 22.85 C 14.06 23.84 15.04 24.63 16.17 25.13 C 16.99 25.49 17.85 25.74 18.74 25.88 C 19.14 25.94 19.55 25.98 19.95 25.99 C 19.963 25.99 19.976 25.99 19.99 25.99 L 20 26 L 27.98 26 L 27.98 26 L 27.98 26 L 27.98 26 Z  M 13 41 L 13 41 C 14.104 41 15 41.896 15 43 L 15 43 C 15 44.104 14.104 45 13 45 L 13 45 L 8 45 C 5.24 45 3 42.76 3 40 L 3 35 L 3 35 C 3 33.896 3.896 33 5 33 L 5 33 C 6.104 33 7 33.896 7 35 L 7 35 L 7 38 C 7 39.656 8.344 41 10 41 L 13 41 L 13 41 L 13 41 L 13 41 Z  M 41 22 L 41 22 C 41 20.896 41.896 20 43 20 L 43 20 C 44.104 20 45 20.896 45 22 L 45 22 L 45 40 C 45 42.76 42.76 45 40 45 L 22 45 L 22 45 C 20.896 45 20 44.104 20 43 L 20 43 C 20 41.896 20.896 41 22 41 L 22 41 L 38 41 C 39.656 41 41 39.656 41 38 L 41 22 L 41 22 Z " fill-rule="evenodd" fill="url(#_lgradient_32)"/></svg>
